symbolic/64x64/apps/avogadro-icon.svg

<svg xmlns="http://www.w3.org/2000/svg" width="64" height="64" version="1.1">
 <path style="opacity:0.2" d="m 27.094708,5.0099972 c -1.066566,0.073164 -1.246294,0.5785278 -1.84019,2.0671784 L 4.7608728,58.444919 c -1.076797,2.47857 -1.343767,2.480068 1.460121,2.480068 h 7.2431852 c 2.791602,0.215942 2.963922,0.10084 3.885452,-2.209366 l 4.134275,-9.717204 h 10.516152 10.516154 l 4.134274,9.717204 c 0.92153,2.310206 1.09385,2.425308 3.885454,2.209366 h 7.243182 c 2.80389,0 2.536922,-0.0015 1.460124,-2.480068 L 38.745598,7.0771756 C 38.151704,5.588525 37.971976,5.0831608 36.90541,5.0099972 c -0.355522,-0.024388 -0.810388,-0.0027 -1.410904,0.049218 H 32.000058 28.505612 C 27.905094,5.0072934 27.45023,4.9856094 27.094708,5.0099972 Z m 4.90535,16.9776598 6.05923,15.21126 h -6.05923 -6.059228 z"/>
 <path style="fill:#4f4f4f" d="m 27.094708,4.0099973 c -1.066566,0.073164 -1.246294,0.5785278 -1.84019,2.0671784 L 4.7608728,57.444919 c -1.076797,2.47857 -1.343767,2.480068 1.460121,2.480068 h 7.2431852 c 2.791602,0.215942 2.963922,0.10084 3.885452,-2.209366 l 4.134275,-9.717204 h 10.516152 10.516154 l 4.134274,9.717204 c 0.92153,2.310206 1.09385,2.425308 3.885454,2.209366 h 7.243182 c 2.80389,0 2.536922,-0.0015 1.460124,-2.480068 L 38.745598,6.0771757 C 38.151704,4.5885251 37.971976,4.0831609 36.90541,4.0099973 c -0.355522,-0.024388 -0.810388,-0.0027 -1.410904,0.049218 H 32.000058 28.505612 C 27.905094,4.0072935 27.45023,3.9856095 27.094708,4.0099973 Z m 4.90535,16.9776597 6.05923,15.21126 h -6.05923 -6.059228 z"/>
 <ellipse style="fill:none;stroke:#ff631b;stroke-width:5.14293766;stroke-linecap:round;stroke-linejoin:round" cx="41.941" cy="11.909" rx="31.179" ry="7.224" transform="matrix(0.87762155,0.47935417,-0.40371213,0.91488607,0,0)"/>
 <path style="fill:#4f4f4f" d="m 17.96786,24.341171 -3.901935,9.778082 26.055745,13.88035 h 2.395302 l 0.81564,1.533976 15.757334,7.535184 -6.537862,-16.387038 -15.654228,-7.396452 1.162104,2.91483 h -6.059348 -6.059348 l 2.712488,-6.811298 z"/>
 <ellipse style="fill:none;stroke:#ff631b;stroke-width:5.14293766;stroke-linecap:round;stroke-linejoin:round" cx="-16.821" cy="42.697" rx="31.179" ry="7.224" transform="matrix(-0.87762155,0.47935417,0.40371213,0.91488607,0,0)"/>
 <path style="fill:#ff631b" d="m 22.792827,25.065134 5.153568,2.894534 c -4.629964,2.643643 -8.793355,5.388971 -12.171478,7.959965 L 11.644074,32.74413 c 3.14163,-2.505472 6.912666,-5.117056 11.148753,-7.678996 z"/>
 <path style="fill:#4f4f4f" d="m 46.033364,24.341171 3.901934,9.778082 -26.055744,13.88035 h -2.395302 l -0.81564,1.533976 -15.7573338,7.535184 6.5378608,-16.387038 15.654229,-7.396452 -1.162104,2.91483 h 6.059348 6.059348 l -2.712488,-6.811298 z"/>
 <path style="fill:#ff631b" d="m 41.207171,25.065134 -5.153568,2.894534 c 4.629964,2.643643 8.793355,5.388971 12.171478,7.959965 l 4.130843,-3.175503 c -3.14163,-2.505472 -6.912666,-5.117056 -11.148753,-7.678996 z"/>
 <path style="opacity:0.2" d="M 2.0410156 17.257812 C 1.9787368 17.974797 2.0504927 18.689695 2.2265625 19.324219 C 2.5219931 20.3889 3.0267194 21.330183 3.6582031 22.273438 C 4.9211714 24.159951 6.7465448 26.073877 9.0683594 28.121094 C 10.319432 29.224203 11.725788 30.360831 13.248047 31.513672 C 13.471848 31.343835 13.680997 31.176375 13.910156 31.005859 C 12.132137 29.684747 10.496407 28.380248 9.0683594 27.121094 C 6.7465448 25.073877 4.9211714 23.159951 3.6582031 21.273438 C 3.0267194 20.330182 2.5219931 19.3889 2.2265625 18.324219 C 2.1334637 17.988707 2.076338 17.627055 2.0410156 17.257812 z M 8.0957031 17.310547 C 7.6259088 17.319889 7.4233441 17.389876 7.1855469 17.447266 C 7.2901844 17.691677 7.365914 17.910986 7.6464844 18.330078 C 7.6508118 18.336542 7.6577393 18.34507 7.6621094 18.351562 C 7.7842034 18.333085 7.9074334 18.314291 8.0957031 18.310547 C 9.4488847 18.283637 11.607238 18.611323 14.210938 19.328125 C 19.41834 20.76173 26.464129 23.692258 33.878906 27.742188 C 41.293683 31.792116 47.68445 36.201209 51.888672 39.908203 C 53.980676 41.75279 55.528163 43.441969 56.339844 44.648438 C 56.521342 44.621333 56.672374 44.588964 56.814453 44.554688 C 56.709835 44.310268 56.634187 44.087212 56.353516 43.667969 C 55.545075 42.460391 53.990783 40.761701 51.888672 38.908203 C 47.68445 35.201209 41.293683 30.792116 33.878906 26.742188 C 26.464129 22.692258 19.41834 19.76173 14.210938 18.328125 C 11.607238 17.611323 9.4488847 17.283637 8.0957031 17.310547 z M 61.958984 45.746094 C 61.916764 46.232153 61.824727 46.718214 61.621094 47.179688 C 61.11708 48.321876 60.162427 49.065947 59.224609 49.457031 C 58.291481 49.846161 57.318496 49.977988 56.267578 50 L 56.660156 50.980469 C 57.561318 50.934962 58.409588 50.796909 59.224609 50.457031 C 60.162427 50.065947 61.11708 49.321875 61.621094 48.179688 C 61.966073 47.397899 62.035516 46.548156 61.958984 45.746094 z"/>
 <circle style="opacity:0.2" cx="15.001" cy="16" r="7"/>
 <circle style="fill:#ffc500" cx="15.001" cy="15" r="7"/>
 <path style="opacity:0.2;fill:#ffffff" d="M 15 8 A 6.9999694 6.9999694 0 0 0 8 15 A 6.9999694 6.9999694 0 0 0 8.0253906 15.445312 A 6.9999694 6.9999694 0 0 1 15 9 A 6.9999694 6.9999694 0 0 1 21.974609 15.478516 A 6.9999694 6.9999694 0 0 0 22 15 A 6.9999694 6.9999694 0 0 0 15 8 z"/>
 <path style="opacity:0.2" d="M 61.964844 17.257812 C 61.929521 17.627055 61.872397 17.988707 61.779297 18.324219 C 61.483866 19.3889 60.97914 20.330181 60.347656 21.273438 C 59.084688 23.159951 57.259314 25.073877 54.9375 27.121094 C 53.509452 28.380248 51.873722 29.684747 50.095703 31.005859 C 50.324862 31.176375 50.534011 31.343835 50.757812 31.513672 C 52.280071 30.360831 53.686427 29.224203 54.9375 28.121094 C 57.259314 26.073877 59.084688 24.159951 60.347656 22.273438 C 60.97914 21.330182 61.483866 20.3889 61.779297 19.324219 C 61.955344 18.689695 62.027124 17.974798 61.964844 17.257812 z M 55.910156 17.310547 C 54.556975 17.283637 52.398622 17.611323 49.794922 18.328125 C 46.387697 19.266139 42.186887 20.854779 37.617188 22.96875 C 37.943667 23.152667 38.275479 23.334638 38.597656 23.519531 C 42.787203 21.629195 46.63236 20.198783 49.794922 19.328125 C 52.398622 18.611323 54.556975 18.283637 55.910156 18.310547 C 56.098426 18.314297 56.221656 18.333082 56.34375 18.351562 C 56.34813 18.345073 56.355075 18.336578 56.359375 18.330078 C 56.639945 17.910986 56.715676 17.691677 56.820312 17.447266 C 56.582515 17.389877 56.37995 17.319847 55.910156 17.310547 z M 32.005859 25.744141 C 31.380991 26.072405 30.758074 26.397471 30.126953 26.742188 C 22.712176 30.792116 16.321409 35.201209 12.117188 38.908203 C 10.015076 40.761701 8.4607847 42.460391 7.6523438 43.667969 C 7.3716727 44.087212 7.2960243 44.310268 7.1914062 44.554688 C 7.3334853 44.588968 7.4845176 44.621338 7.6660156 44.648438 C 8.4776966 43.441969 10.025184 41.75279 12.117188 39.908203 C 16.32141 36.201209 22.712176 31.792116 30.126953 27.742188 C 31.07464 27.224563 32.014701 26.726358 32.947266 26.246094 C 32.632677 26.077526 32.318758 25.908553 32.005859 25.744141 z M 2.046875 45.746094 C 1.970343 46.548156 2.0397866 47.397898 2.3847656 48.179688 C 2.8887796 49.321875 3.843432 50.065947 4.78125 50.457031 C 5.596271 50.796909 6.4445411 50.934959 7.3457031 50.980469 L 7.7382812 50 C 6.6873632 49.977988 5.714378 49.846161 4.78125 49.457031 C 3.843432 49.065947 2.8887796 48.321875 2.3847656 47.179688 C 2.1811326 46.718213 2.089095 46.232153 2.046875 45.746094 z"/>
 <circle style="opacity:0.2" cx="53.5" cy="25.5" r="5.5"/>
 <circle style="fill:#ffc500" cx="53.5" cy="24.5" r="5.5"/>
 <path style="opacity:0.2;fill:#ffffff" d="M 53.5 19 A 5.5 5.5 0 0 0 48 24.5 A 5.5 5.5 0 0 0 48.025391 24.986328 A 5.5 5.5 0 0 1 53.5 20 A 5.5 5.5 0 0 1 58.974609 25.013672 A 5.5 5.5 0 0 0 59 24.5 A 5.5 5.5 0 0 0 53.5 19 z"/>
</svg>

<svg xmlns="http://www.w3.org/2000/svg" width="64" height="64"><path style="opacity:.2" d="M27.095 5.01c-1.067.073-1.247.579-1.84 2.067L4.76 58.445c-1.077 2.478-1.344 2.48 1.46 2.48h7.243c2.792.216 2.964.1 3.886-2.21l4.134-9.717h21.032l4.134 9.718c.922 2.31 1.094 2.425 3.886 2.209h7.243c2.804 0 2.537-.002 1.46-2.48L38.746 7.077c-.594-1.488-.774-1.994-1.84-2.067-.356-.024-.811-.003-1.411.05H28.506c-.6-.053-1.056-.074-1.411-.05zM32 21.988l6.06 15.21H25.94z"/><path style="fill:#4f4f4f" d="M27.095 4.01c-1.067.073-1.247.579-1.84 2.067L4.76 57.445c-1.077 2.478-1.344 2.48 1.46 2.48h7.243c2.792.216 2.964.1 3.886-2.21l4.134-9.717h21.032l4.134 9.718c.922 2.31 1.094 2.425 3.886 2.209h7.243c2.804 0 2.537-.002 1.46-2.48L38.746 6.077c-.594-1.488-.774-1.994-1.84-2.067-.356-.024-.811-.003-1.411.05H28.506c-.6-.053-1.056-.074-1.411-.05zM32 20.988l6.06 15.21H25.94z"/><ellipse style="fill:none;stroke:#ff631b;stroke-width:5.14293766;stroke-linecap:round;stroke-linejoin:round" cx="41.941" cy="11.909" rx="31.179" ry="7.224" transform="matrix(.87762 .47935 -.40371 .91489 0 0)"/><path style="fill:#4f4f4f" d="m17.968 24.341-3.902 9.778L40.122 48h2.395l.816 1.535 15.757 7.535-6.538-16.387-15.654-7.397L38.06 36.2H25.941l2.713-6.811z"/><ellipse style="fill:none;stroke:#ff631b;stroke-width:5.14293766;stroke-linecap:round;stroke-linejoin:round" cx="-16.821" cy="42.697" rx="31.179" ry="7.224" transform="matrix(-.87762 .47935 .40371 .91489 0 0)"/><path style="fill:#ff631b" d="m22.793 25.065 5.153 2.895c-4.63 2.643-8.793 5.389-12.171 7.96l-4.13-3.176c3.14-2.505 6.912-5.117 11.148-7.679z"/><path style="fill:#4f4f4f" d="m46.033 24.341 3.902 9.778L23.88 48h-2.396l-.815 1.535L4.91 57.069l6.538-16.387 15.654-7.397-1.162 2.915H38.06l-2.713-6.811z"/><path style="fill:#ff631b" d="m41.207 25.065-5.153 2.895c4.63 2.643 8.793 5.389 12.171 7.96l4.13-3.176c-3.14-2.505-6.912-5.117-11.148-7.679z"/><path style="opacity:.2" d="M2.041 17.258c-.062.717.01 1.432.186 2.066.295 1.065.8 2.006 1.431 2.95 1.263 1.886 3.089 3.8 5.41 5.847a72.961 72.961 0 0 0 4.18 3.393c.224-.17.433-.338.662-.508-1.778-1.321-3.414-2.626-4.842-3.885-2.321-2.047-4.147-3.961-5.41-5.848-.631-.943-1.136-1.884-1.431-2.949a6.239 6.239 0 0 1-.186-1.066zm6.055.053c-.47.009-.673.079-.91.136.104.245.18.464.46.883l.016.022c.122-.019.245-.038.434-.041 1.353-.027 3.511.3 6.115 1.017 5.207 1.434 12.253 4.364 19.668 8.414 7.415 4.05 13.805 8.46 18.01 12.166 2.092 1.845 3.64 3.534 4.45 4.74.182-.027.333-.059.475-.093-.104-.245-.18-.468-.46-.887-.809-1.208-2.363-2.906-4.465-4.76-4.205-3.707-10.595-8.116-18.01-12.166-7.415-4.05-14.46-6.98-19.668-8.414-2.604-.717-4.762-1.044-6.115-1.017zm53.863 28.435c-.042.486-.134.972-.338 1.434-.504 1.142-1.459 1.886-2.396 2.277-.934.39-1.907.521-2.957.543l.392.98c.901-.045 1.75-.183 2.565-.523.937-.391 1.892-1.135 2.396-2.277.345-.782.415-1.632.338-2.434z"/><circle style="opacity:.2" cx="15.001" cy="16" r="7"/><circle style="fill:#ffc500" cx="15.001" cy="15" r="7"/><path style="opacity:.2;fill:#fff" d="M15 8a7 7 0 0 0-7 7 7 7 0 0 0 .025.445A7 7 0 0 1 15 9a7 7 0 0 1 6.975 6.479A7 7 0 0 0 22 15a7 7 0 0 0-7-7z"/><path style="opacity:.2" d="M61.965 17.258c-.035.37-.093.73-.186 1.066-.295 1.065-.8 2.006-1.431 2.95-1.263 1.886-3.089 3.8-5.41 5.847-1.429 1.26-3.064 2.564-4.842 3.885.229.17.438.338.662.508a72.961 72.961 0 0 0 4.18-3.393c2.321-2.047 4.147-3.961 5.41-5.848.631-.943 1.136-1.884 1.431-2.949.176-.634.248-1.35.186-2.066zm-6.055.053c-1.353-.027-3.511.3-6.115 1.017-3.407.938-7.608 2.527-12.178 4.64.327.185.658.367.98.552 4.19-1.89 8.035-3.321 11.198-4.192 2.604-.717 4.762-1.044 6.115-1.017.188.003.312.022.434.04l.015-.02c.28-.42.357-.64.461-.884-.237-.057-.44-.127-.91-.136zm-23.904 8.433c-.625.328-1.248.653-1.879.998-7.415 4.05-13.806 8.46-18.01 12.166-2.102 1.854-3.656 3.552-4.465 4.76-.28.42-.356.642-.46.887.141.034.293.066.474.093.812-1.206 2.36-2.895 4.451-4.74 4.204-3.707 10.595-8.116 18.01-12.166.948-.517 1.888-1.016 2.82-1.496-.314-.168-.628-.337-.941-.502zM2.046 45.746c-.076.802-.006 1.652.339 2.434.504 1.142 1.458 1.886 2.396 2.277.815.34 1.664.478 2.565.523l.392-.98c-1.05-.022-2.024-.154-2.957-.543-.938-.391-1.892-1.135-2.396-2.277-.204-.462-.296-.948-.338-1.434z"/><circle style="opacity:.2" cx="53.5" cy="25.5" r="5.5"/><circle style="fill:#ffc500" cx="53.5" cy="24.5" r="5.5"/><path style="opacity:.2;fill:#fff" d="M53.5 19a5.5 5.5 0 0 0-5.5 5.5 5.5 5.5 0 0 0 .025.486A5.5 5.5 0 0 1 53.5 20a5.5 5.5 0 0 1 5.475 5.014A5.5 5.5 0 0 0 59 24.5a5.5 5.5 0 0 0-5.5-5.5z"/></svg>
